!!!OTL: Shierge yue caicha
!!!ARE: Asia, China,ÿHunan Lianyuan
!! I, 510
!!!SCT: C1965
!!!YEM: Copyright 1995, estate of Helmut Schaffrath.
**kern
*ICvox
*Ivox
*M2/4
*k[b-e-]
*B-:
{8ddd
16ddd
16ddd
8bb-
8ccc
=1
8gg
8bb-
4gg
=2
4fff
4ddd
=3
8gg
8ddd
4ccc
=4
8bb-
8ccc
4ddd}
=5
{8bb-
16bb-
16ccc
8ddd
8ccc
=6
8bb-
8ccc
4ddd
=7
16gg
16gg
16bb-
16gg
4ff
=8
8bb-
16gg
16fff
8fff
16ddd
16ccc
=9
8bb-
16bb-
16ddd
4ccc}
=10
{16gg
16gg
16bb-
16ddd
4ccc
=11
8bb-
16gg
16ddd
8ddd
16ddd
16ccc
=12
8bb-
8ccc
4ddd
=13
16gg
16gg
16bb-
16gg
4ff
=14
8bb-
8ff
8ccc
16bb-
16gg
=15
8.ff
16gg
4ff}
==
!!!AGN: Xiaodiao
!!!ONB: ESAC (Essen Associative Code) Database: SENGANSU
!!!AMT: simple duple
!!!AIN: vox
!!!EED: Helmut Schaffrath
!!!EEV: 1.0
*-
